packages/kaspersky-hexa-ui-icons/src/iconsSVGs/48/Doctor.svg

<svg width="48" height="48" viewBox="0 0 48 48" fill="none" xmlns="http://www.w3.org/2000/svg">
<path fill-rule="evenodd" clip-rule="evenodd" d="M41.0001 26.2362V24.9412C41.6171 24.3102 42.0001 23.4502 42.0001 22.5002C42.0001 20.5702 40.4301 19.0002 38.5001 19.0002C36.5701 19.0002 35.0001 20.5702 35.0001 22.5002C35.0001 23.4502 35.3831 24.3102 36.0001 24.9412V26.2362C34.7801 25.4152 34.0001 24.0242 34.0001 22.5002C34.0001 20.0182 36.0191 18.0002 38.5001 18.0002C40.9811 18.0002 43.0001 20.0182 43.0001 22.5002C43.0001 24.0242 42.2201 25.4152 41.0001 26.2362ZM30.0001 46.0002H23.0001C18.0371 46.0002 14.0001 41.9632 14.0001 37.0002V29.0002H12.7061C9.73705 29.0002 7.24505 26.8722 6.77905 23.9402L6.19505 20.2572L7.17905 20.0932L7.75406 23.7722C8.13705 26.2212 10.2141 28.0002 12.6931 28.0002H16.3071C18.7861 28.0002 20.8631 26.2212 21.2461 23.7722L21.8211 20.0932L22.8051 20.2572L22.2211 23.9402C21.7551 26.8722 19.2631 29.0002 16.2941 29.0002H15.0001V37.0002C15.0001 41.4112 18.5891 45.0002 23.0001 45.0002H30.0001C34.4111 45.0002 38.0001 41.4112 38.0001 37.0002V25.9492C38.1651 25.9732 38.3291 26.0002 38.5001 26.0002C38.6711 26.0002 38.8351 25.9732 39.0001 25.9492V37.0002C39.0001 41.9632 34.9631 46.0002 30.0001 46.0002ZM38.5001 24.0002C37.6731 24.0002 37.0001 23.3272 37.0001 22.5002C37.0001 21.6732 37.6731 21.0002 38.5001 21.0002C39.3271 21.0002 40.0001 21.6732 40.0001 22.5002C40.0001 23.3272 39.3271 24.0002 38.5001 24.0002ZM8.00005 3.00024H10.0001L10.0021 4.00024H8.00005V3.00024ZM19.0001 4.00024V3.00024H21.0001L21.0021 4.00024H19.0001ZM45.0001 22.5002C45.0001 18.9162 42.0841 16.0002 38.5001 16.0002C34.9161 16.0002 32.0001 18.9162 32.0001 22.5002C32.0001 25.1322 33.6161 27.4822 36.0001 28.4822V37.0002C36.0001 40.3082 33.3091 43.0002 30.0001 43.0002H23.0001C19.6911 43.0002 17.0001 40.3082 17.0001 37.0002V30.9692C20.6421 30.6552 23.6121 27.9282 24.1951 24.2552L25.0921 18.6102L23.6191 18.3652L25.5991 6.49324C25.7441 5.62224 25.5001 4.73524 24.9291 4.06024C24.4371 3.48024 23.7461 3.13124 23.0001 3.03924V3.00024C23.0001 1.89724 22.1031 1.00024 21.0001 1.00024H19.0001C17.8971 1.00024 17.0001 1.89724 17.0001 3.00024V4.00024C17.0001 5.10224 17.8971 6.00024 19.0001 6.00024H21.0001C21.7301 6.00024 22.3631 5.60224 22.7131 5.01524C22.9801 5.03624 23.2271 5.14624 23.4021 5.35324C23.5961 5.58224 23.6751 5.87024 23.6261 6.16524L21.6461 18.0372L20.1571 17.7892L19.2701 23.4642C19.0401 24.9332 17.7941 26.0002 16.3071 26.0002H12.6931C11.2061 26.0002 9.96005 24.9332 9.73005 23.4642L8.84305 17.7892L7.35405 18.0372L5.37405 6.16524C5.32505 5.87024 5.40405 5.58224 5.59805 5.35324C5.77305 5.14624 6.02005 5.03624 6.28705 5.01524C6.63705 5.60224 7.27005 6.00024 8.00005 6.00024H10.0001C11.1031 6.00024 12.0001 5.10224 12.0001 4.00024V3.00024C12.0001 1.89724 11.1031 1.00024 10.0001 1.00024H8.00005C6.89705 1.00024 6.00005 1.89724 6.00005 3.00024V3.03924C5.25405 3.13124 4.56305 3.48024 4.07105 4.06024C3.50005 4.73524 3.25605 5.62224 3.40105 6.49324L5.38105 18.3652L3.90805 18.6102L4.80505 24.2552C5.38805 27.9282 8.35805 30.6552 12.0001 30.9692V37.0002C12.0001 43.0652 16.9351 48.0002 23.0001 48.0002H30.0001C36.0651 48.0002 41.0001 43.0652 41.0001 37.0002V28.4822C43.3841 27.4822 45.0001 25.1322 45.0001 22.5002Z"  fill="currentColor"/>
</svg>

<svg xmlns="http://www.w3.org/2000/svg" width="48" height="48" fill="none" viewBox="0 0 48 48"><path fill="currentColor" fill-rule="evenodd" d="M41.0001 26.2362v-1.295c.617-.631 1-1.491 1-2.441 0-1.93-1.57-3.5-3.5-3.5s-3.5 1.57-3.5 3.5c0 .95.383 1.81 1 2.441v1.295c-1.22-.821-2-2.212-2-3.736 0-2.482 2.019-4.5 4.5-4.5s4.5 2.018 4.5 4.5c0 1.524-.78 2.915-2 3.736m-11 19.764h-7c-4.963 0-9-4.037-9-9v-8h-1.294c-2.969 0-5.461-2.128-5.927-5.06l-.584-3.683.984-.164.575 3.679c.383 2.449 2.46 4.228 4.939 4.228h3.614c2.479 0 4.556-1.779 4.939-4.228l.575-3.679.984.164-.584 3.683c-.466 2.932-2.958 5.06-5.927 5.06h-1.294v8c0 4.411 3.589 8 8 8h7c4.411 0 8-3.589 8-8v-11.051c.165.024.329.051.5.051s.335-.027.5-.051v11.051c0 4.963-4.037 9-9 9m8.5-22c-.827 0-1.5-.673-1.5-1.5s.673-1.5 1.5-1.5 1.5.673 1.5 1.5-.673 1.5-1.5 1.5m-30.5-21h2l.002 1h-2.002zm11 1v-1h2l.002 1zm26 18.5c0-3.584-2.916-6.5-6.5-6.5s-6.5 2.916-6.5 6.5c0 2.632 1.616 4.982 4 5.982v8.518c0 3.308-2.691 6-6 6h-7c-3.309 0-6-2.692-6-6v-6.031c3.642-.314 6.612-3.041 7.195-6.714l.897-5.645-1.473-.245 1.98-11.872a2.999 2.999 0 0 0-.67-2.433c-.492-.58-1.183-.929-1.929-1.021v-.039c0-1.103-.897-2-2-2h-2c-1.103 0-2 .897-2 2v1c0 1.102.897 2 2 2h2c.73 0 1.363-.398 1.713-.985.267.021.514.131.689.338.194.229.273.517.224.812l-1.98 11.872-1.489-.248-.887 5.675c-.23 1.469-1.476 2.536-2.963 2.536h-3.614c-1.487 0-2.733-1.067-2.963-2.536l-.887-5.675-1.489.248-1.98-11.872c-.049-.295.03-.583.224-.812.175-.207.422-.317.689-.338.35.587.983.985 1.713.985h2c1.103 0 2-.898 2-2v-1c0-1.103-.897-2-2-2h-2c-1.103 0-2 .897-2 2v.039c-.746.092-1.437.441-1.929 1.021a2.999 2.999 0 0 0-.67 2.433l1.98 11.872-1.473.245.897 5.645c.583 3.673 3.553 6.4 7.195 6.714v6.031c0 6.065 4.935 11 11 11h7c6.065 0 11-4.935 11-11v-8.518c2.384-1 4-3.35 4-5.982" clip-rule="evenodd"/></svg>
